src/assets/icons/menu/widgets.svg

<svg fill="none" height="24" viewBox="0 0 24 24" width="24" xmlns="http://www.w3.org/2000/svg"><g fill="#2e3d49"><path d="m3.52917 3c-.29225 0-.52917.23692-.52917.52917v6.94163c0 .2923.23692.5292.52917.5292h6.94163c.2923 0 .5292-.2369.5292-.5292v-6.94163c0-.29225-.2369-.52917-.5292-.52917zm0 10c-.29225 0-.52917.2369-.52917.5292v6.9416c0 .2923.23692.5292.52917.5292h6.94163c.2923 0 .5292-.2369.5292-.5292v-6.9416c0-.2923-.2369-.5292-.5292-.5292zm13.47083 0c-1.0609 0-2.0783.4214-2.8284 1.1716-.7502.7501-1.1716 1.7675-1.1716 2.8284s.4214 2.0783 1.1716 2.8284c.7501.7502 1.7675 1.1716 2.8284 1.1716s2.0783-.4214 2.8284-1.1716c.7502-.7501 1.1716-1.7675 1.1716-2.8284s-.4214-2.0783-1.1716-2.8284c-.7501-.7502-1.7675-1.1716-2.8284-1.1716z"/><path d="m13.1254 9.51436 3.3004-5.94088c.381-.68581 1.3674-.68581 1.7484 0l3.3004 5.94088c.3703.66654-.1116 1.48564-.8741 1.48564h-6.601c-.7625 0-1.2444-.8191-.8741-1.48564z"/></g></svg>

<svg xmlns="http://www.w3.org/2000/svg" width="24" height="24" fill="none" viewBox="0 0 24 24"><path fill="#2E3D49" d="M3.52917 3C3.23692 3 3 3.23692 3 3.52917V10.4708C3 10.7631 3.23692 11 3.52917 11H10.4708C10.7631 11 11 10.7631 11 10.4708V3.52917C11 3.23692 10.7631 3 10.4708 3H3.52917ZM3.52917 13C3.23692 13 3 13.2369 3 13.5292V20.4708C3 20.7631 3.23692 21 3.52917 21H10.4708C10.7631 21 11 20.7631 11 20.4708V13.5292C11 13.2369 10.7631 13 10.4708 13H3.52917ZM17 13C15.9391 13 14.9217 13.4214 14.1716 14.1716C13.4214 14.9217 13 15.9391 13 17C13 18.0609 13.4214 19.0783 14.1716 19.8284C14.9217 20.5786 15.9391 21 17 21C18.0609 21 19.0783 20.5786 19.8284 19.8284C20.5786 19.0783 21 18.0609 21 17C21 15.9391 20.5786 14.9217 19.8284 14.1716C19.0783 13.4214 18.0609 13 17 13Z"/><path fill="#2E3D49" d="M13.1254 9.51436L16.4258 3.57348C16.8068 2.88767 17.7932 2.88767 18.1742 3.57348L21.4746 9.51436C21.8449 10.1809 21.363 11 20.6005 11H13.9995C13.237 11 12.7551 10.1809 13.1254 9.51436Z"/></svg>
